app/static/github.svg

<?xml version="1.0" encoding="UTF-8"?>
<svg width="22px" height="21px" viewBox="0 0 22 21" version="1.1" xmlns="http://www.w3.org/2000/svg" xmlns:xlink="http://www.w3.org/1999/xlink">
    <!-- Generator: Sketch 58 (84663) - https://sketch.com -->
    <title>github</title>
    <desc>Created with Sketch.</desc>
    <g id="Page-1" stroke="none" stroke-width="1" fill="none" fill-rule="evenodd">
        <g id="github" transform="translate(-1.000000, -1.000000)" fill-rule="nonzero">
            <rect id="Rectangle" fill="#000000" opacity="0" transform="translate(12.000000, 12.000000) rotate(180.000000) translate(-12.000000, -12.000000) " x="-1.77635684e-15" y="1.77635684e-15" width="24" height="24"></rect>
            <path d="M12,1 C5.9893592,0.938921784 1.06592606,5.75941041 1,11.77 C1.02281847,16.4500062 4.06001447,20.5817236 8.52,22 C9.07,22.1 9.27,21.77 9.27,21.48 L9.27,19.65 C6.21,20.3 5.56,18.21 5.56,18.21 C5.35629658,17.5539 4.92323219,16.9930461 4.34,16.63 C3.34,15.97 4.42,15.98 4.42,15.98 C5.12027975,16.0736186 5.739212,16.482556 6.1,17.09 C6.74561277,18.2095056 8.16908307,18.6054083 9.3,17.98 C9.35590713,17.4323821 9.60389175,16.9222423 10,16.54 C7.56,16.27 5,15.35 5,11.22 C4.9781802,10.1426797 5.37624267,9.09911049 6.11,8.31 C5.77582715,7.38506839 5.81528599,6.36631275 6.22,5.47 C6.22,5.47 7.15,5.18 9.22,6.57 C11.021894,6.0898385 12.918106,6.0898385 14.72,6.57 C16.82,5.18 17.72,5.47 17.72,5.47 C18.124714,6.36631275 18.1641729,7.38506839 17.83,8.31 C18.580802,9.08464704 19.0004498,10.121213 19,11.2 C19,15.34 16.42,16.25 14,16.52 C14.5365517,17.0409353 14.8117185,17.7747133 14.75,18.52 L14.75,21.47 C14.75,21.82 14.95,22.1 15.5,21.99 C19.9466587,20.5631431 22.9725241,16.4398971 23,11.77 C22.9340739,5.75941041 18.0106408,0.938921784 12,1" id="Path" fill="#4A4A4A"></path>
        </g>
    </g>
</svg>

<svg xmlns="http://www.w3.org/2000/svg" viewBox="0 0 24 24"><g data-name="Layer 2"><rect width="24" height="24" transform="rotate(180 12 12)" opacity="0"/><path d="M12 1A10.89 10.89 0 0 0 1 11.77 10.79 10.79 0 0 0 8.52 22c.55.1.75-.23.75-.52v-1.83c-3.06.65-3.71-1.44-3.71-1.44a2.86 2.86 0 0 0-1.22-1.58c-1-.66.08-.65.08-.65a2.31 2.31 0 0 1 1.68 1.11 2.37 2.37 0 0 0 3.2.89 2.33 2.33 0 0 1 .7-1.44c-2.44-.27-5-1.19-5-5.32a4.15 4.15 0 0 1 1.11-2.91 3.78 3.78 0 0 1 .11-2.84s.93-.29 3 1.1a10.68 10.68 0 0 1 5.5 0c2.1-1.39 3-1.1 3-1.1a3.78 3.78 0 0 1 .11 2.84A4.15 4.15 0 0 1 19 11.2c0 4.14-2.58 5.05-5 5.32a2.5 2.5 0 0 1 .75 2v2.95c0 .35.2.63.75.52A10.8 10.8 0 0 0 23 11.77 10.89 10.89 0 0 0 12 1" data-name="github"/></g></svg>
